X:844
T:Sir John Lockhart Ross
R:Reel
B:The Athole Collection
M:C|
L:1/8
K:G Minor
D|GABc Bc/d/ cB|AfcB AFcA|GABc B/c/d cB|AFcA G/G/G G:|
A|Ggga g/a/b ag|f=efg afcf|dcdg bagf|cAfA G/G/G GA|Ggga g/a/b ag|
f=efg afcf|ba/g/ ag/^f/ gf/=e/ fd|cAfA G/G/G G||

